source/images/page-footer__logo.svg

<svg viewBox="0 0 82 36" fill="none" xmlns="http://www.w3.org/2000/svg"><path d="M81.13 17.24h-4.2v4.6q-.37.17-.76.29-.87.27-1.81.27-1.27 0-2.28-.51l-.19-.1q-.53-.3-.94-.71-.43-.44-.74-1l-.08-.14q-.52-1.05-.52-2.35 0-1.66.76-2.81.24-.36.56-.67.33-.34.72-.58 1.15-.74 2.76-.74.95 0 1.8.3 1.26.45 2.28 1.58l3.02-2.74q-.36-.43-.77-.8-1.02-.92-2.35-1.48-1.87-.79-4.22-.79-2.56 0-4.62 1.01l-.21.11q-1.31.68-2.27 1.7-.6.63-1.06 1.4-.27.46-.48.94-.72 1.63-.72 3.57 0 1.95.72 3.58.21.48.48.93.49.82 1.13 1.49.93.96 2.18 1.63l.39.19q1.96.92 4.36.92h.14q1.81-.02 3.61-.55 1.87-.55 3.31-1.58v-6.96Z" fill="#333" fill-rule="evenodd"/><path d="M58 18c0 2.87-.6 5.59-1.67 8h-13.33c2.46-3.78 5-8.34 5-13 0-6-4.07-11.05-9.59-12.55 1.15-.3 2.35-.45 3.59-.45 8.83 0 16 8.05 16 18Zm-14-5a9 9 0 0 0-9-9c-6.66 0-9 8.5-9 14 0 9.94 7.16 18 16 18 4.73 0 8.99-2.32 11.92-6h-18.92l1.09-1.39c3.52-4.41 7.91-9.92 7.91-15.61Z" fill="#7859CF" fill-rule="evenodd"/><path d="M9.79 9.2h-7.94v16.8h7.94q2.77 0 4.9-1.04 1.51-.72 2.53-1.87.43-.49.78-1.05l.19-.32q.99-1.79.99-4.13 0-2.32-.98-4.1l-.2-.33q-.36-.58-.8-1.08-1.02-1.14-2.51-1.85-2.13-1.03-4.9-1.03Zm2.79 12.17q-1.2.83-2.98.83h-3v-9.21h3q1.78 0 2.98.83.26.18.49.39.29.28.52.6.79 1.11.79 2.78 0 1.69-.8 2.8-.22.32-.51.59-.23.21-.49.39Z" fill="#333" fill-rule="evenodd"/></svg>

<svg width="82.000000" height="36.000000" viewBox="0 0 82 36" fill="none" xmlns="http://www.w3.org/2000/svg" xmlns:xlink="http://www.w3.org/1999/xlink">
	<desc>
			Created with Pixso.
	</desc>
	<defs/>
	<path id="g" d="M81.13 17.24L76.93 17.24L76.93 21.84Q76.56 22.01 76.17 22.13Q75.3 22.4 74.36 22.4Q73.09 22.4 72.08 21.89Q71.98 21.84 71.89 21.79Q71.36 21.49 70.95 21.08Q70.52 20.64 70.21 20.08Q70.17 20.01 70.13 19.94Q69.61 18.89 69.61 17.59Q69.61 15.93 70.37 14.78Q70.61 14.42 70.93 14.11Q71.26 13.77 71.65 13.53Q72.8 12.79 74.41 12.79Q75.36 12.79 76.21 13.09Q77.47 13.54 78.49 14.67L81.51 11.93Q81.15 11.5 80.74 11.13Q79.72 10.21 78.39 9.65Q76.52 8.86 74.17 8.86Q71.61 8.86 69.55 9.87Q69.45 9.92 69.34 9.98Q68.03 10.66 67.07 11.68Q66.47 12.31 66.01 13.08Q65.74 13.54 65.53 14.02Q64.81 15.65 64.81 17.59Q64.81 19.54 65.53 21.17Q65.74 21.65 66.01 22.1Q66.5 22.92 67.14 23.59Q68.07 24.55 69.32 25.22Q69.51 25.32 69.71 25.41Q71.67 26.33 74.07 26.33Q74.14 26.33 74.21 26.33Q76.02 26.31 77.82 25.78Q79.69 25.23 81.13 24.2L81.13 17.24Z" fill="#333333" fill-opacity="1.000000" fill-rule="evenodd"/>
	<path id="2" d="M58 18C58 20.87 57.4 23.59 56.33 26L43 26C45.46 22.22 48 17.66 48 13C48 7 43.93 1.95 38.41 0.45C39.56 0.15 40.76 0 42 0C50.83 0 58 8.05 58 18ZM44 13C44 8.02 39.97 4 35 4C28.34 4 26 12.5 26 18C26 27.94 33.16 36 42 36C46.73 36 50.99 33.68 53.92 30L35 30C35.35 29.55 35.72 29.08 36.09 28.61C39.61 24.2 44 18.69 44 13Z" fill="#7859CF" fill-opacity="1.000000" fill-rule="evenodd"/>
	<path id="D" d="M9.79 9.2L1.85 9.2L1.85 26L9.79 26Q12.56 26 14.69 24.96Q16.2 24.24 17.22 23.09Q17.65 22.6 18 22.04Q18.1 21.88 18.19 21.72Q19.18 19.93 19.18 17.59Q19.18 15.27 18.2 13.49Q18.1 13.32 18 13.16Q17.64 12.58 17.2 12.08Q16.18 10.94 14.69 10.23Q12.56 9.2 9.79 9.2ZM12.58 21.37Q11.38 22.2 9.6 22.2L6.6 22.2L6.6 12.99L9.6 12.99Q11.38 12.99 12.58 13.82Q12.84 14 13.07 14.21Q13.36 14.49 13.59 14.81Q14.38 15.92 14.38 17.59Q14.38 19.28 13.58 20.39Q13.36 20.71 13.07 20.98Q12.84 21.19 12.58 21.37Z" fill="#333333" fill-opacity="1.000000" fill-rule="evenodd"/>
</svg>
